images_elementary_svg/cmd/lc_insertcaptiondialog.svg

<svg viewBox="0 0 24 24" xmlns="http://www.w3.org/2000/svg" xmlns:xlink="http://www.w3.org/1999/xlink"><linearGradient id="a" gradientTransform="matrix(.2817955 0 0 .2800956 12.196562 12.014885)" gradientUnits="userSpaceOnUse" x1="24.138529" x2="24.138529" y1="10.631441" y2="35.62291"><stop offset="0" stop-color="#fff"/><stop offset=".00000002" stop-color="#fff" stop-opacity=".235294"/><stop offset="1" stop-color="#fff" stop-opacity=".156863"/><stop offset="1" stop-color="#fff" stop-opacity=".392157"/></linearGradient><linearGradient id="b" gradientTransform="matrix(.2817955 0 0 .2800956 12.178741 12.02218)" gradientUnits="userSpaceOnUse" x1="24.138529" x2="24.138529" y1="21.34207" y2="24.912279"><stop offset="0" stop-color="#fff"/><stop offset=".00000019" stop-color="#fff" stop-opacity=".235294"/><stop offset="1" stop-color="#fff" stop-opacity=".156863"/><stop offset="1" stop-color="#fff" stop-opacity=".392157"/></linearGradient><radialGradient id="c" cx="65.297462" cy="48.216358" gradientTransform="matrix(0 .52544994 -.5716256 0 46.193389 -21.123812)" gradientUnits="userSpaceOnUse" r="31.000002"><stop offset="0" stop-color="#cdf87e"/><stop offset=".26238" stop-color="#a2e34f"/><stop offset=".66093999" stop-color="#68b723"/><stop offset="1" stop-color="#1d7e0d"/></radialGradient><radialGradient id="d" cx="605.71429" cy="486.64789" gradientTransform="matrix(.01204859 0 0 .0082353 13.23879 17.980564)" gradientUnits="userSpaceOnUse" r="117.14286"><stop offset="0"/><stop offset="1" stop-opacity="0"/></radialGradient><linearGradient id="e"><stop offset="0" stop-color="#fff"/><stop offset="0" stop-color="#fff" stop-opacity=".235294"/><stop offset="1" stop-color="#fff" stop-opacity=".156863"/><stop offset="1" stop-color="#fff" stop-opacity=".392157"/></linearGradient><linearGradient id="f" gradientUnits="userSpaceOnUse" x1="10" x2="19" xlink:href="#e" y1="9.5" y2="9.5"/><linearGradient id="g" gradientUnits="userSpaceOnUse" x1="10" x2="25" y1="12" y2="12"><stop offset="0" stop-color="#f4f4f4"/><stop offset="1" stop-color="#dbdbdb"/></linearGradient><linearGradient id="h" gradientUnits="userSpaceOnUse" x1="23" x2="9.5" y1="14" y2="14"><stop offset="0" stop-opacity=".339506"/><stop offset="1" stop-opacity=".246914"/></linearGradient><linearGradient id="i" gradientUnits="userSpaceOnUse" x1="11" x2="23" xlink:href="#e" y1="12" y2="12"/><g transform="matrix(0 1 -1 0 26 -7)"><path d="m10 4v.5 16.5h14v-17zm1 1h12v15h-12z" fill="url(#f)"/><path d="m9.5 3.5v18h15v-18z" fill="url(#g)"/><path d="m10.5 4.5h13v16h-13z" fill="none" stroke="url(#i)"/><path d="m9 3v.5 18.5h16v-19zm1 1h14v17h-14z" fill="url(#h)"/><path d="m26.5 3v18.5h2v-18.5" fill="#fcaf3e" stroke="#ce5c00" stroke-linejoin="round" stroke-miterlimit="0"/></g><g transform="translate(-12.992714 -13.007295)"><path d="m20.5 21.000085v1.999891c.62047.0038 1.5-.448075 1.5-1.000075 0-.551999-.6924-.999816-1.5-.999816z" fill="url(#d)" opacity=".15"/><path d="m16.482179 16.507295v-3h4v3h3v4h-3v2.999991h-4v-2.999991h-2.989465v-4z" fill="url(#c)"/><g fill="none"><path d="m17.5 18.004404v-3.504404h2v3.5m0 1v3.5h-2v-3.5" opacity=".5" stroke="url(#a)"/><path d="m16.482179 16.507295v-3h4v3h3v4h-3v2.999991h-4v-2.999991h-2.989465v-4z" opacity=".5" stroke="#0f5a00" stroke-linecap="round" stroke-linejoin="round"/><path d="m20 17.507295 2.482179-.0073v2l-2.482179.0073m-3 0-2.5-.0073v-2l2.5.0073" opacity=".5" stroke="url(#b)"/></g></g></svg>

<?xml version="1.0" encoding="UTF-8" standalone="no"?>
<svg
   xmlns:dc="http://purl.org/dc/elements/1.1/"
   xmlns:cc="http://creativecommons.org/ns#"
   xmlns:rdf="http://www.w3.org/1999/02/22-rdf-syntax-ns#"
   xmlns:svg="http://www.w3.org/2000/svg"
   xmlns="http://www.w3.org/2000/svg"
   xmlns:xlink="http://www.w3.org/1999/xlink"
   xmlns:sodipodi="http://sodipodi.sourceforge.net/DTD/sodipodi-0.dtd"
   xmlns:inkscape="http://www.inkscape.org/namespaces/inkscape"
   viewBox="0 0 24 24"
   version="1.1"
   id="svg83"
   sodipodi:docname="lc_insertcaptiondialog.svg"
   inkscape:version="0.92.4 (unknown)"
   inkscape:export-filename="/home/rizmut/Dokumen/Rizmut/Github/libreoffice-style-elementary/images_elementary/cmd/lc_insertcaptiondialog.png"
   inkscape:export-xdpi="96"
   inkscape:export-ydpi="96">
  <metadata
     id="metadata89">
    <rdf:RDF>
      <cc:Work
         rdf:about="">
        <dc:format>image/svg+xml</dc:format>
        <dc:type
           rdf:resource="http://purl.org/dc/dcmitype/StillImage" />
      </cc:Work>
    </rdf:RDF>
  </metadata>
  <defs
     id="defs87" />
  <sodipodi:namedview
     pagecolor="#ffffff"
     bordercolor="#666666"
     borderopacity="1"
     objecttolerance="10"
     gridtolerance="10"
     guidetolerance="10"
     inkscape:pageopacity="0"
     inkscape:pageshadow="2"
     inkscape:window-width="1366"
     inkscape:window-height="714"
     id="namedview85"
     showgrid="true"
     inkscape:zoom="9.8333333"
     inkscape:cx="2.3151939"
     inkscape:cy="13.605718"
     inkscape:window-x="0"
     inkscape:window-y="28"
     inkscape:window-maximized="1"
     inkscape:current-layer="svg83">
    <inkscape:grid
       type="xygrid"
       id="grid896" />
  </sodipodi:namedview>
  <linearGradient
     id="a"
     gradientTransform="matrix(0.2817955,0,0,0.2800956,12.196562,12.014885)"
     gradientUnits="userSpaceOnUse"
     x1="24.138529"
     x2="24.138529"
     y1="10.631441"
     y2="35.62291">
    <stop
       offset="0"
       stop-color="#fff"
       id="stop2" />
    <stop
       offset=".00000002"
       stop-color="#fff"
       stop-opacity=".235294"
       id="stop4" />
    <stop
       offset="1"
       stop-color="#fff"
       stop-opacity=".156863"
       id="stop6" />
    <stop
       offset="1"
       stop-color="#fff"
       stop-opacity=".392157"
       id="stop8" />
  </linearGradient>
  <linearGradient
     id="b"
     gradientTransform="matrix(0.2817955,0,0,0.2800956,12.178741,12.02218)"
     gradientUnits="userSpaceOnUse"
     x1="24.138529"
     x2="24.138529"
     y1="21.34207"
     y2="24.912279">
    <stop
       offset="0"
       stop-color="#fff"
       id="stop11" />
    <stop
       offset=".00000019"
       stop-color="#fff"
       stop-opacity=".235294"
       id="stop13" />
    <stop
       offset="1"
       stop-color="#fff"
       stop-opacity=".156863"
       id="stop15" />
    <stop
       offset="1"
       stop-color="#fff"
       stop-opacity=".392157"
       id="stop17" />
  </linearGradient>
  <radialGradient
     id="c"
     cx="65.297462"
     cy="48.216358"
     gradientTransform="matrix(0,0.52544994,-0.5716256,0,46.193389,-21.123812)"
     gradientUnits="userSpaceOnUse"
     r="31.000002">
    <stop
       offset="0"
       stop-color="#cdf87e"
       id="stop20" />
    <stop
       offset=".26238"
       stop-color="#a2e34f"
       id="stop22" />
    <stop
       offset=".66093999"
       stop-color="#68b723"
       id="stop24" />
    <stop
       offset="1"
       stop-color="#1d7e0d"
       id="stop26" />
  </radialGradient>
  <linearGradient
     id="d">
    <stop
       offset="0"
       id="stop29" />
    <stop
       offset="1"
       stop-opacity="0"
       id="stop31" />
  </linearGradient>
  <radialGradient
     id="e"
     cx="605.71429"
     cy="486.64789"
     gradientTransform="matrix(0.01204859,0,0,0.0082353,13.23879,17.980564)"
     gradientUnits="userSpaceOnUse"
     r="117.14286"
     xlink:href="#d" />
  <radialGradient
     id="f"
     cx="2.25"
     cy="16"
     gradientTransform="matrix(.25461393 0 0 .06210065 5.164407 18.943745)"
     gradientUnits="userSpaceOnUse"
     r="16.875"
     xlink:href="#d" />
  <linearGradient
     id="g">
    <stop
       offset="0"
       stop-color="#fff"
       id="stop36" />
    <stop
       offset="0"
       stop-color="#fff"
       stop-opacity=".235294"
       id="stop38" />
    <stop
       offset="1"
       stop-color="#fff"
       stop-opacity=".156863"
       id="stop40" />
    <stop
       offset="1"
       stop-color="#fff"
       stop-opacity=".392157"
       id="stop42" />
  </linearGradient>
  <linearGradient
     id="h"
     gradientUnits="userSpaceOnUse"
     x1="11"
     x2="20"
     xlink:href="#g"
     y1="9.5"
     y2="9.5"
     gradientTransform="translate(-1)" />
  <linearGradient
     id="i"
     gradientUnits="userSpaceOnUse"
     x1="11"
     x2="26"
     y1="12"
     y2="12"
     gradientTransform="translate(-1)">
    <stop
       offset="0"
       stop-color="#f4f4f4"
       id="stop46" />
    <stop
       offset="1"
       stop-color="#dbdbdb"
       id="stop48" />
  </linearGradient>
  <linearGradient
     id="j"
     gradientUnits="userSpaceOnUse"
     x1="24"
     x2="10.5"
     y1="14"
     y2="14"
     gradientTransform="translate(-1)">
    <stop
       offset="0"
       stop-opacity=".339506"
       id="stop51" />
    <stop
       offset="1"
       stop-opacity=".246914"
       id="stop53" />
  </linearGradient>
  <linearGradient
     id="k"
     gradientUnits="userSpaceOnUse"
     x1="12"
     x2="24"
     xlink:href="#g"
     y1="12"
     y2="12"
     gradientTransform="translate(-1)" />
  <g
     id="g910"
     transform="rotate(90,16.5,9.5)">
    <path
       id="path57"
       d="M 10,4 V 4.5 21 H 24 V 4 Z m 1,1 H 23 V 20 H 11 Z"
       style="fill:url(#h)"
       inkscape:connector-curvature="0"
       sodipodi:nodetypes="ccccccccccc" />
    <path
       sodipodi:nodetypes="ccccc"
       style="fill:url(#i)"
       inkscape:connector-curvature="0"
       id="path61"
       d="m 9.5,3.5 v 18 h 15 v -18 z" />
    <path
       sodipodi:nodetypes="ccccc"
       style="fill:none;stroke:url(#k)"
       inkscape:connector-curvature="0"
       id="path63"
       d="m 10.5,4.5 h 13 v 16 h -13 z" />
    <path
       sodipodi:nodetypes="ccccccccccc"
       style="fill:url(#j)"
       inkscape:connector-curvature="0"
       id="path67"
       d="M 9,3 V 3.5 22 H 25 V 3 Z m 1,1 H 24 V 21 H 10 Z" />
    <path
       inkscape:connector-curvature="0"
       style="fill:#fcaf3e;stroke:#ce5c00;stroke-linejoin:round;stroke-miterlimit:0"
       d="m 26.5,3 v 18.5 h 2 V 3"
       stroke-miterlimit="0"
       id="path1027"
       sodipodi:nodetypes="cccc" />
  </g>
  <g
     id="g904"
     transform="translate(-12.992714,-13.007295)">
    <path
       id="path71"
       d="m 20.5,21.000085 v 1.999891 c 0.62047,0.0038 1.5,-0.448075 1.5,-1.000075 0,-0.551999 -0.6924,-0.999816 -1.5,-0.999816 z"
       style="opacity:0.15;fill:url(#e)"
       inkscape:connector-curvature="0" />
    <path
       id="path73"
       d="m 16.482179,16.507295 v -3 h 4 v 3 h 3 v 4 h -3 v 2.999991 h -4 v -2.999991 h -2.989465 v -4 z"
       style="fill:url(#c)"
       inkscape:connector-curvature="0" />
    <g
       id="g81"
       style="fill:none">
      <path
         id="path75"
         d="M 17.5,18.004404 V 14.5 h 2 V 18 m 0,1 v 3.5 h -2 V 19"
         style="opacity:0.5;stroke:url(#a)"
         inkscape:connector-curvature="0" />
      <path
         id="path77"
         d="m 16.482179,16.507295 v -3 h 4 v 3 h 3 v 4 h -3 v 2.999991 h -4 v -2.999991 h -2.989465 v -4 z"
         inkscape:connector-curvature="0"
         style="opacity:0.5;stroke:#0f5a00;stroke-linecap:round;stroke-linejoin:round" />
      <path
         id="path79"
         d="m 20,17.507295 2.482179,-0.0073 v 2 L 20,19.507295 m -3,0 -2.5,-0.0073 v -2 l 2.5,0.0073"
         style="opacity:0.5;stroke:url(#b)"
         inkscape:connector-curvature="0" />
    </g>
  </g>
</svg>
